X: 1876
T: Trakya Karşılaması
C: Ahmet Yamacı
O: Turkey
F: http://compmusic.upf.edu/node/140
N: huseyni--karsilama--evfer--trakya_karsilamasi--
N: makam= huseyni
N: form= karsilama
N: usul= evfer = 9/8
M: 9/8
L: 1/16
K: C _2/4B ^3/4f  
Q: 1/4=198
%%MIDI tuningsystem comma53
z4 d2e2 e=fd2 e2c4 | d2 e2=fe d2e2 c2d2 e4  | \
w:   |   | 
z4 d2e2 e=fd2 e2c4 | 
w:   | 
d2 e2=fe d2c4B2 A4  | z4 d2e2 e=fd2 e2c4 | \
w:   |   | 
d2 e2=fe d2e2 c2d2 e4  | 
w:   | 
z4 d2e2 e=fd2 e2c4 | d2 e2=fe d2c4B2 A4  | \
w:   |   | 
z4 F2G2 A2B2 c2d2 e2 | 
w:   | 
=fe ded2 c2B3Ad2 d4  | z4 F2G2 A2B2 c2d2 e2 | \
w:   |   | 
=fe ded2 c2B3AA2 A4  | 
w:   | 
z4 F2G2 A2B2 c2d2 e2 | =fe ded2 c2B3Ad2 d4  | \
w:   |   | 
z4 F2G2 A2B2 c2d2 e2 | 
w:   | 
=fe ded2 c2B3AA2 A4  | z4 d2e2 e=fd2 e2c4 | \
w:   |   | 
d2 e2=fe d2e2 c2d2 e4  | 
w:   | 
z4 d2e2 e=fd2 e2c4 | d2 e2=fe d2c4B2 A4  | \
w:   |   | 
z4 d2e2 e=fd2 e2c4 | 
w:   | 
d2 e2=fe d2e2 c2d2 e4  | z4 d2e2 e=fd2 e2c4 | \
w:   |   | 
d2 e2=fe d2c4B2 A4  | 
w:   | 
z4 F2G2 A2B2 c2d2 e2 | =fe ded2 c2B3Ad2 d4  | \
w:   |   | 
z4 F2G2 A2B2 c2d2 e2 | 
w:   | 
=fe ded2 c2B3AA2 A4  | z4 F2G2 A2B2 c2d2 e2 | \
w:   |   | 
=fe ded2 c2B3Ad2 d4  | 
w:   | 
z4 F2G2 A2B2 c2d2 e2 | =fe ded2 c2B3AA2 A4  | \
w:   |   | 
.B4 .c4 .B4 c2c2 d2 | 
w:   | 
.B4.c4.B4A2 A4  | .B4 .c4 .B4 c2c2 d2 | \
w:   |   | 
.B4.c4.B4A2 A4  | z4 A2B2 c2d2 e2f2 g2 | 
w:   |   | 
g=f efe4e4e2 e4  | e4 e4 e4 e2e4 | e4e4e4e2 e4  | \
w:   |   |   | 
.f4 .g4 .f4 g2g2 a2 | 
w:   | 
f4g4f4e2 e4  | .f4 .g4 .f4 g2g2 a2 | \
w:   |   | 
f4g4f4e2 e4  | z4 d2e2 e=fd2 e2c4 | 
w:   |   | 
d2 e2=fe d2e2 c2d2 e4  | z4 d2e2 e=fd2 e2c4 | \
w:   |   | 
d2 e2=fe d2c4B2 A4  | 
w:   | 
z4 d2e2 e=fd2 e2c4 | d2 e2=fe d2e2 c2d2 e4  | \
w:   |   | 
z4 d2e2 e=fd2 e2c4 | 
w:   | 
d2 e2=fe d2c4B2 A4  | z4 F2G2 A2B2 c2d2 e2 | \
w:   |   | 
=fe ded2 c2B3Ad2 d4  | 
w:   | 
z4 F2G2 A2B2 c2d2 e2 | =fe ded2 c2B3AA2 A4  | \
w:   |   | 
z4 F2G2 A2B2 c2d2 e2 | 
w:   | 
=fe ded2 c2B3Ad2 d4  | z4 F2G2 A2B2 c2d2 e2 | \
w:   |   | 
=fe ded2 c2B3AA2 A4  | 
w:   | 
z4 d2e2 e=fd2 e2c4 | d2 e2=fe d2e2 c2d2 e4  | \
w:   |   | 
z4 d2e2 e=fd2 e2c4 | 
w:   | 
d2 e2=fe d2c4B2 A4  | z4 d2e2 e=fd2 e2c4 | \
w:   |   | 
d2 e2=fe d2e2 c2d2 e4  | 
w:   | 
z4 d2e2 e=fd2 e2c4 | d2 e2=fe d2c4B2 A4  | \
w:   |   | 
z4 F2G2 A2B2 c2d2 e2 | 
w:   | 
=fe ded2 c2B3Ad2 d4  | z4 F2G2 A2B2 c2d2 e2 | \
w:   |   | 
=fe ded2 c2B3AA2 A4  | 
w:   | 
z4 F2G2 A2B2 c2d2 e2 | =fe ded2 c2B3Ad2 d4  | \
w:   |   | 
z4 F2G2 A2B2 c2d2 e2 | 
w:   | 
=fe ded2 c2B3AA2 A4  | .B4 .c4 .B4 c2c2 d2 | \
w:   |   | 
.B4.c4.B4A2 A4  | 
w:   | 
.B4 .c4 .B4 c2c2 d2 | .B4.c4.B4A2 A4  | |


